X: 31921
T: Peacock's Feathers, The
R: hornpipe
M: 4/4
K: Dmajor
AG|:F2ED EDA2|deed ABdf|fgfd eadB|AGFD ~E2AG|
FAED EDAB|deed ABdf|fgfd eadB|1 Adfe edAG:|2 Adfe defg||
|:gaga faea|dded ABdf|gffd eadB|AGFD ~E2AG|
FAED EDAB|deed ABdf|gffd eadB|1 Adfe defg:|2 Adfe ed||

